!!!OTL: Da kommen die vier schwarzen Br&uuml;der (Band 1), S. 57
!!!id: P0792
**kern
*clefG2
*k[f#]
*G:
{8d
8d
8g
=1
8.g
16g
16g
8g
8g
8g
16g
=2
8g
8b
8dd}
=3
{8g
=4
8g
8g
4a
=5
8a
8cc
8b
8a
=6
4g}
8r
=7
{8g
=8
8f#
8g
4a
=9
4a
8a
8cc
=10
8.b
8a
16g}
=11
{8b
=12
8.b
16b
8b
8a
=13
8g
8b
8dd
8b
=14
4a}
8r
=15
{8g
=16
4.a
16g
16g
=17
4a
8g
8a
=18
4b
8a
8a
=19
4g}
8r
=20
{8b
=21
8.b
16b
8b
8a
=22
8g
8b
8dd
8b
=23
4a}
8r
=24
{8g
=25
4.a
16g
16g
=26
4a
8g
8a
=27
4b
8a
8a
=28
8g}
==
*-
!!!minrhy: 16
!!!meters: 2/4 ]  ZZ[7
!!!cut: Da kommen die vier schwarzen Br&uuml;der (Band 1), S. 57
!!!reg: Lothringen
!!!trd: PINCK, Louis: Verklingende Weisen, Bd 1, Metz 1928
!!!rhy1: X_X_X_  X_.X(X_X_X_)  X_X_X_
!!!rhy2: X_  X_X_X__  X_X_X_X_  X__0_
!!!key: P0792  16  G 2/4 ]  ZZ[7
!!!mod: SECHSTONSKALA DUR ?]  AMBITUS[8
!!!kad: 5112121
!!!akz: 11_121_-723_312_2231_312_2231_
!!!fot: 'a__b__c__d__e__d__e__
!!!for: 'a__b__c__d__e__d__ev_
!!!fok: '/__^__^__Sd_^__Sd_^__
!! PHRAS[AUFTAKTIG]
!!!fkt: geistliche, religiöse Lieder, Tod
!! LOTH VKL
!! PR[24] 2K[7] 2G[15] 3K[7] 3G[5] 4A[5] 4Ü[0] 5A[0] 6K[0] 6G[0]
!! 7K[0] 7G[0] 8A[0] MEHR[0] SI[39] ABS[41] SR[22] SP[17]
!! ST[8] 2k[7] 2g[17] 3k[5] 3g[2] 4d[5] 4ü[0] 5d[0] 6k[0] 6g[0]
!! 7k[0] 7g[0] 8d[0] mehr[0] si[37] dm[+2] sr[24] sp[12]
!! 1F[51] 2F[49] 3F[0] 4F[0] LF[0] 2P[0] 3P[0] 4P[0] TRI[0] DF[2] AB[43]
!! TF[0] U3K[0] U3[0] U4[0] U4Ü[0] U5[7] U6K[0] U6[7] U7K[0] U7[14]
!! N1[40] N2K[0] N2[17] N3K[0] N3[12] N4[2] N4Ü[0] N5[0] N6K[0] N6[0]
!!!n7k: 0] N7[0] O1[0] O2K[0] O2[0] O3K[0] O3[0] HÖ[0
!!!RNB: symbol: &uuml;  = u umlaut (UTF-8: Ã¼)
